X:406
T:Polska efter Bredal
T:(Sv. L. Sm. 219)
R:Polska
Z:Jonas Brunskog, 2/9 2008
O:Markaryd, Småland
S:efter Nils Bernhard Ljunggren
S:efter Anders Bredal
B:Svenska Låtar Småland
N:Sv. L. Sm. 219
N:Ljunggren hade låten efter Anders Bredal.
M:3/4
L:1/16
K:Dm
|:DFA^c dcde gfef|a2ba a2ae gfed|^cdec c2A2 A4|
DFA^c dcde gfef|a2ba a2ae gfed|^cdec (c2d2) d4:|
|:f2ff e2ee A2AA|f2ed ^cded A2A2|f2ff e2ee A2AA|
f2ed ^cded A2A2|a2ba a2ae gfed|^cdec (c2d2) d4:|
(:musicend:)

(:music:)
